X: 42597
T: Where Lilies Bloom
R: polka
M: 2/4
K: Dmajor
|:D>E FA|d2 d>A|BA Bc|BA FA|
D>E FA|d2 d>A|B>A B/c/d|ed d2:|
|:fA eA|dA cA|B>A Bc|BA FA|
[1 fA eA|dA cA|B>A B/c/d|ed d2:|
[2 D2 FA|d2 d>A|B>A B/c/d|ed d2||

